; generated by SuperSlicer 2.3.57 on 2021-11-22 at 00:18:43 UTC


;
;

;
;
; TODO: check the size of the extruder and the y-bar clearance. Optimize & test supports.

; external perimeters extrusion width = 0.40mm
; perimeters extrusion width = 0.40mm
; infill extrusion width = 0.45mm
; solid infill extrusion width = 0.45mm
; top infill extrusion width = 0.40mm
; first layer extrusion width = 0.40mm

; object:{"name":"z_bed_rear_x1","id":"z_bed_rear_x1.stl id:0 copy 0","object_center":[150.000000,150.000000,0.000000],"boundingbox_center":[150.000000,150.000000,8.000000],"boundingbox_size":[28.499893,54.499252,16.000000]}
; plater:{"center":[150.000000,150.000000,0.000000],"boundingbox_center":[150.000000,150.000000,8.000000],"boundingbox_size":[28.499893,54.499252,16.000000]}

M73 P0 R36
;TYPE:Custom
; Fake superslicer out so it doesn't put extra temperature waits
M104 S0
M190 S0

print_start bed=110 hotend=245 soak=0
dock_probe
M107
G21 ; set units to millimeters
G90 ; use absolute coordinates
M83 ; use relative distances for extrusion
;Filament gcode pa_value=0.3364 0.03625
; pa_value=0.03
; z_offset 0.147
; z_offset=0.193
; pa_value=0.035
; 0.235
;  z_offset=0.07
;FILAMENT_PARAMETERS z_offset=0.06 pa_value=0.035
;FILAMENT_PARAMETERS z_offset=0.25 pa_value=0.035
;FILAMENT_PARAMETERS z_offset=0.42 pa_value=0.035
FILAMENT_PARAMETERS z_offset=0 pa_value=0.038
;LAYER_CHANGE
;Z:0.2
;HEIGHT:0.2
G1 Z0.2 F27000
; INIT printing object z_bed_rear_x1.stl id:0 copy 0
M104 S245 ; set temperature
G1 E-1.5 F3000
G1 Z0.8 F27000
; printing object z_bed_rear_x1.stl id:0 copy 0
M204 S1500
G1 X75.312 Y76.465
M204 S3000
G1 X150.625 Y152.931
G1 Z0.2
G1 E1.5 F2100
;TYPE:Internal perimeter
;WIDTH:0.4
G1 F1200
G1 X150.502 Y152.938 E0.00341
G1 X150.253 Y152.965 E0.00695
G1 X150.132 Y152.987 E0.00341
G1 X149.888 Y153.041 E0.00695
G1 X149.77 Y153.078 E0.00341
G1 X149.533 Y153.158 E0.00695
G1 X149.421 Y153.208 E0.00341
G1 X149.195 Y153.313 E0.00692
G1 X148.882 Y153.501 E0.01014
G1 X148.682 Y153.653 E0.00698
G1 X148.585 Y153.729 E0.00341
G1 X148.403 Y153.901 E0.00695
G1 X148.316 Y153.988 E0.00341
G1 X148.154 Y154.179 E0.00695
G1 X148.078 Y154.276 E0.00341
G1 X147.938 Y154.483 E0.00695
G1 X147.874 Y154.588 E0.00341
G1 X147.757 Y154.81 E0.00695
G1 X147.707 Y154.922 E0.00341
G1 X147.614 Y155.154 E0.00695
G1 X147.577 Y155.272 E0.00341
G1 X147.51 Y155.513 E0.00695
G1 X147.488 Y155.634 E0.00341
G1 X147.448 Y155.881 E0.00695
G1 X147.44 Y156.004 E0.00341
G1 X147.427 Y156.25 E0.00684
G1 X147.44 Y156.496 E0.00684
G1 X147.448 Y156.618 E0.00341
G1 X147.488 Y156.865 E0.00695
G1 X147.51 Y156.986 E0.00341
G1 X147.577 Y157.228 E0.00695
G1 X147.614 Y157.345 E0.00341
G1 X147.707 Y157.578 E0.00695
G1 X147.757 Y157.69 E0.00341
G1 X147.874 Y157.911 E0.00695
G1 X147.938 Y158.016 E0.00341
G1 X148.078 Y158.223 E0.00695
G1 X148.154 Y158.32 E0.00341
G1 X148.316 Y158.511 E0.00695
G1 X148.403 Y158.598 E0.00341
G1 X148.585 Y158.77 E0.00695
G1 X148.682 Y158.846 E0.00341
G1 X148.882 Y158.998 E0.00698
G1 X149.195 Y159.186 E0.01014
G1 X149.421 Y159.291 E0.00692
G1 X149.533 Y159.342 E0.00341
G1 X149.77 Y159.422 E0.00695
G1 X149.888 Y159.458 E0.00341
G1 X150.132 Y159.512 E0.00695
G1 X150.253 Y159.534 E0.00341
G1 X150.502 Y159.561 E0.00695
G1 X150.625 Y159.569 E0.00341
G1 X150.875 Y159.569 E0.00695
G1 X150.998 Y159.561 E0.00341
G1 X151.247 Y159.534 E0.00695
G1 X151.368 Y159.512 E0.00341
G1 X151.612 Y159.458 E0.00695
G1 X151.73 Y159.422 E0.00341
G1 X151.967 Y159.342 E0.00695
G1 X152.079 Y159.291 E0.00341
G1 X152.305 Y159.186 E0.00692
G1 X152.618 Y158.998 E0.01014
G1 X152.818 Y158.846 E0.00698
G1 X152.915 Y158.77 E0.00341
G1 X153.097 Y158.598 E0.00695
G1 X153.184 Y158.511 E0.00341
G1 X153.346 Y158.32 E0.00695
G1 X153.422 Y158.223 E0.00341
G1 X153.562 Y158.016 E0.00695
G1 X153.626 Y157.911 E0.00341
G1 X153.743 Y157.69 E0.00695
G1 X153.794 Y157.578 E0.00341
G1 X153.886 Y157.345 E0.00695
G1 X153.923 Y157.228 E0.00341
M73 P0 R35
G1 X153.99 Y156.986 E0.00695
G1 X154.012 Y156.865 E0.00341
G1 X154.052 Y156.618 E0.00695
G1 X154.06 Y156.496 E0.00341
G1 X154.073 Y156.25 E0.00684
G1 X154.06 Y156.004 E0.00684
G1 X154.052 Y155.881 E0.00341
G1 X154.012 Y155.634 E0.00695
G1 X153.99 Y155.513 E0.00341
G1 X153.923 Y155.272 E0.00695
G1 X153.886 Y155.154 E0.00341
G1 X153.794 Y154.922 E0.00695
G1 X153.743 Y154.81 E0.00341
G1 X153.626 Y154.588 E0.00695
G1 X153.562 Y154.483 E0.00341
G1 X153.422 Y154.276 E0.00695
G1 X153.346 Y154.179 E0.00341
G1 X153.184 Y153.988 E0.00695
G1 X153.097 Y153.901 E0.00341
G1 X152.915 Y153.729 E0.00695
G1 X152.818 Y153.653 E0.00341
G1 X152.618 Y153.501 E0.00698
G1 X152.305 Y153.313 E0.01014
G1 X152.079 Y153.208 E0.00692
G1 X151.967 Y153.158 E0.00341
G1 X151.73 Y153.078 E0.00695
G1 X151.612 Y153.041 E0.00341
G1 X151.368 Y152.987 E0.00695
G1 X151.247 Y152.965 E0.00341
G1 X150.998 Y152.938 E0.00695
G1 X150.875 Y152.931 E0.00341
G1 X150.685 Y152.931 E0.00528
G1 E-1.5 F3000
G1 Z0.4 F27000
M204 S1500
G1 X150.66 Y156.071
M204 S3000
G1 X150.636 Y159.211
G1 Z0.2
G1 E1.5 F2100
G1 F1200
G1 X150.864 Y159.211 E0.00635
G1 X150.968 Y159.205 E0.00288
G1 X151.195 Y159.18 E0.00635
G1 X151.297 Y159.162 E0.00288
G1 X151.521 Y159.113 E0.00635
G1 X151.62 Y159.082 E0.00288
G1 X151.836 Y159.009 E0.00635
G1 X151.931 Y158.966 E0.00288
G1 X152.138 Y158.87 E0.00633
G1 X152.417 Y158.702 E0.00906
G1 X152.6 Y158.563 E0.00637
G1 X152.682 Y158.499 E0.00288
G1 X152.848 Y158.342 E0.00635
G1 X152.921 Y158.269 E0.00288
G1 X153.069 Y158.094 E0.00635
G1 X153.133 Y158.013 E0.00287
G1 X153.261 Y157.823 E0.00635
G1 X153.315 Y157.735 E0.00288
G1 X153.422 Y157.533 E0.00635
G1 X153.465 Y157.438 E0.00287
G1 X153.549 Y157.226 E0.00635
G1 X153.58 Y157.127 E0.00288
G1 X153.641 Y156.906 E0.00635
G1 X153.66 Y156.804 E0.00287
G1 X153.697 Y156.579 E0.00635
G1 X153.703 Y156.475 E0.00288
G1 X153.716 Y156.25 E0.00627
G1 X153.703 Y156.024 E0.00627
G1 X153.697 Y155.921 E0.00288
G1 X153.66 Y155.695 E0.00635
G1 X153.641 Y155.593 E0.00287
G1 X153.58 Y155.373 E0.00635
G1 X153.549 Y155.274 E0.00288
G1 X153.465 Y155.061 E0.00635
G1 X153.422 Y154.967 E0.00287
G1 X153.315 Y154.765 E0.00635
G1 X153.261 Y154.676 E0.00288
G1 X153.133 Y154.487 E0.00635
G1 X153.069 Y154.405 E0.00287
G1 X152.921 Y154.231 E0.00635
G1 X152.848 Y154.157 E0.00288
G1 X152.682 Y154. E0.00635
G1 X152.6 Y153.936 E0.00288
G1 X152.417 Y153.797 E0.00637
G1 X152.138 Y153.629 E0.00906
G1 X151.931 Y153.533 E0.00633
G1 X151.836 Y153.491 E0.00288
G1 X151.62 Y153.417 E0.00635
G1 X151.521 Y153.387 E0.00287
G1 X151.297 Y153.337 E0.00635
G1 X151.195 Y153.319 E0.00288
G1 X150.968 Y153.294 E0.00635
G1 X150.864 Y153.288 E0.00288
G1 X150.636 Y153.288 E0.00635
G1 X150.532 Y153.294 E0.00288
G1 X150.305 Y153.319 E0.00635
G1 X150.203 Y153.337 E0.00287
G1 X149.979 Y153.387 E0.00635
G1 X149.881 Y153.417 E0.00288
G1 X149.664 Y153.491 E0.00635
G1 X149.569 Y153.533 E0.00288
G1 X149.362 Y153.629 E0.00633
G1 X149.083 Y153.797 E0.00906
G1 X148.9 Y153.936 E0.00637
G1 X148.818 Y154. E0.00288
G1 X148.652 Y154.157 E0.00635
G1 X148.579 Y154.231 E0.00287
G1 X148.431 Y154.405 E0.00635
G1 X148.367 Y154.487 E0.00288
G1 X148.239 Y154.676 E0.00635
G1 X148.185 Y154.765 E0.00287
G1 X148.078 Y154.967 E0.00635
G1 X148.035 Y155.061 E0.00287
G1 X147.951 Y155.274 E0.00635
G1 X147.92 Y155.373 E0.00288
G1 X147.859 Y155.593 E0.00635
G1 X147.84 Y155.695 E0.00288
G1 X147.803 Y155.921 E0.00635
G1 X147.797 Y156.024 E0.00288
G1 X147.784 Y156.25 E0.00627
G1 X147.797 Y156.475 E0.00627
G1 X147.803 Y156.579 E0.00288
G1 X147.84 Y156.804 E0.00635
G1 X147.859 Y156.906 E0.00288
G1 X147.92 Y157.127 E0.00635
G1 X147.951 Y157.226 E0.00287
G1 X148.035 Y157.438 E0.00635
G1 X148.078 Y157.533 E0.00287
G1 X148.185 Y157.735 E0.00635
G1 X148.239 Y157.823 E0.00287
G1 X148.367 Y158.013 E0.00635
G1 X148.431 Y158.094 E0.00288
G1 X148.579 Y158.269 E0.00635
G1 X148.652 Y158.342 E0.00287
G1 X148.818 Y158.499 E0.00635
G1 X148.9 Y158.563 E0.00288
G1 X149.083 Y158.702 E0.00637
G1 X149.362 Y158.87 E0.00906
G1 X149.569 Y158.966 E0.00633
G1 X149.664 Y159.009 E0.00288
G1 X149.881 Y159.082 E0.00635
G1 X149.979 Y159.113 E0.00288
G1 X150.203 Y159.162 E0.00635
G1 X150.305 Y159.18 E0.00287
G1 X150.532 Y159.205 E0.00635
G1 X150.576 Y159.208 E0.00121
M204 S1500
G1 X150.611 Y159.031 F27000
M204 S3000
G1 X150.646 Y158.854
G1 F1200
G1 X150.854 Y158.854 E0.00575
G1 X150.938 Y158.849 E0.00234
G1 X151.144 Y158.827 E0.00575
G1 X151.227 Y158.812 E0.00234
G1 X151.429 Y158.767 E0.00575
G1 X151.509 Y158.742 E0.00234
G1 X151.706 Y158.676 E0.00575
G1 X151.783 Y158.641 E0.00234
G1 X151.97 Y158.555 E0.00574
G1 X152.217 Y158.406 E0.00799
G1 X152.382 Y158.28 E0.00577
G1 X152.448 Y158.228 E0.00234
G1 X152.599 Y158.086 E0.00575
G1 X152.658 Y158.026 E0.00234
G1 X152.792 Y157.868 E0.00575
G1 X152.844 Y157.802 E0.00234
G1 X152.961 Y157.631 E0.00575
G1 X153.004 Y157.559 E0.00234
G1 X153.101 Y157.375 E0.00575
G1 X153.136 Y157.299 E0.00234
G1 X153.213 Y157.106 E0.00575
G1 X153.238 Y157.026 E0.00234
G1 X153.293 Y156.826 E0.00575
G1 X153.308 Y156.743 E0.00234
G1 X153.342 Y156.539 E0.00575
G1 X153.347 Y156.455 E0.00234
G1 X153.358 Y156.25 E0.0057
G1 X153.347 Y156.045 E0.0057
G1 X153.342 Y155.961 E0.00234
G1 X153.308 Y155.756 E0.00575
G1 X153.293 Y155.673 E0.00234
G1 X153.238 Y155.473 E0.00575
G1 X153.213 Y155.393 E0.00234
G1 X153.136 Y155.201 E0.00575
G1 X153.101 Y155.124 E0.00234
G1 X153.004 Y154.941 E0.00575
G1 X152.961 Y154.869 E0.00234
G1 X152.844 Y154.697 E0.00575
G1 X152.792 Y154.631 E0.00234
G1 X152.658 Y154.473 E0.00575
G1 X152.599 Y154.413 E0.00234
G1 X152.448 Y154.271 E0.00575
G1 X152.382 Y154.219 E0.00234
G1 X152.217 Y154.093 E0.00577
G1 X151.97 Y153.945 E0.00799
G1 X151.783 Y153.858 E0.00574
G1 X151.706 Y153.823 E0.00234
G1 X151.509 Y153.757 E0.00575
G1 X151.429 Y153.732 E0.00234
G1 X151.227 Y153.688 E0.00575
G1 X151.144 Y153.672 E0.00234
G1 X150.938 Y153.65 E0.00575
G1 X150.854 Y153.645 E0.00234
G1 X150.646 Y153.645 E0.00575
G1 X150.562 Y153.65 E0.00234
G1 X150.356 Y153.672 E0.00575
G1 X150.274 Y153.688 E0.00234
G1 X150.071 Y153.732 E0.00575
G1 X149.991 Y153.757 E0.00234
G1 X149.794 Y153.823 E0.00575
G1 X149.718 Y153.858 E0.00234
G1 X149.53 Y153.945 E0.00574
G1 X149.283 Y154.093 E0.00799
G1 X149.118 Y154.219 E0.00577
G1 X149.052 Y154.271 E0.00234
G1 X148.901 Y154.413 E0.00575
G1 X148.842 Y154.473 E0.00234
G1 X148.708 Y154.631 E0.00575
G1 X148.656 Y154.697 E0.00234
G1 X148.539 Y154.869 E0.00575
G1 X148.496 Y154.941 E0.00234
G1 X148.399 Y155.124 E0.00575
G1 X148.364 Y155.201 E0.00234
G1 X148.288 Y155.393 E0.00575
G1 X148.262 Y155.473 E0.00234
G1 X148.207 Y155.673 E0.00575
G1 X148.192 Y155.756 E0.00234
G1 X148.158 Y155.961 E0.00575
G1 X148.153 Y156.045 E0.00234
G1 X148.142 Y156.25 E0.0057
G1 X148.153 Y156.455 E0.0057
G1 X148.158 Y156.539 E0.00234
G1 X148.192 Y156.743 E0.00575
G1 X148.207 Y156.826 E0.00234
G1 X148.262 Y157.026 E0.00575
G1 X148.288 Y157.106 E0.00234
G1 X148.364 Y157.299 E0.00575
G1 X148.399 Y157.375 E0.00234
G1 X148.496 Y157.559 E0.00575
G1 X148.539 Y157.631 E0.00234
G1 X148.656 Y157.802 E0.00575
G1 X148.708 Y157.868 E0.00234
G1 X148.842 Y158.026 E0.00575
G1 X148.901 Y158.086 E0.00234
G1 X149.052 Y158.228 E0.00575
G1 X149.118 Y158.28 E0.00234
G1 X149.283 Y158.406 E0.00577
G1 X149.53 Y158.555 E0.00799
G1 X149.718 Y158.641 E0.00574
G1 X149.794 Y158.676 E0.00234
G1 X149.991 Y158.742 E0.00575
G1 X150.071 Y158.767 E0.00234
G1 X150.274 Y158.812 E0.00575
G1 X150.356 Y158.827 E0.00234
G1 X150.562 Y158.849 E0.00575
G1 X150.587 Y158.851 E0.00067
M204 S1500
G1 X150.622 Y158.674 F27000
M204 S3000
G1 X150.657 Y158.497
;TYPE:External perimeter
G1 F1200
G1 X150.843 Y158.497 E0.00515
G1 X150.908 Y158.493 E0.0018
G1 X151.092 Y158.473 E0.00515
G1 X151.156 Y158.462 E0.0018
G1 X151.337 Y158.422 E0.00515
G1 X151.399 Y158.402 E0.0018
G1 X151.575 Y158.343 E0.00515
G1 X151.634 Y158.317 E0.0018
G1 X151.803 Y158.239 E0.00515
G1 X152.016 Y158.11 E0.00691
G1 X152.164 Y157.998 E0.00516
G1 X152.215 Y157.958 E0.0018
G1 X152.35 Y157.83 E0.00515
G1 X152.396 Y157.784 E0.0018
G1 X152.516 Y157.643 E0.00515
G1 X152.556 Y157.592 E0.0018
G1 X152.66 Y157.438 E0.00515
G1 X152.694 Y157.382 E0.0018
G1 X152.78 Y157.218 E0.00515
G1 X152.807 Y157.159 E0.0018
G1 X152.876 Y156.987 E0.00515
G1 X152.895 Y156.925 E0.0018
G1 X152.945 Y156.746 E0.00515
G1 X152.956 Y156.682 E0.0018
G1 X152.986 Y156.499 E0.00515
G1 X152.99 Y156.434 E0.0018
G1 X153. Y156.25 E0.00513
G1 X152.99 Y156.065 E0.00513
G1 X152.986 Y156. E0.0018
G1 X152.956 Y155.817 E0.00515
G1 X152.945 Y155.753 E0.0018
G1 X152.895 Y155.574 E0.00515
G1 X152.876 Y155.512 E0.0018
G1 X152.807 Y155.34 E0.00515
G1 X152.78 Y155.281 E0.0018
G1 X152.694 Y155.117 E0.00515
G1 X152.66 Y155.061 E0.0018
G1 X152.556 Y154.908 E0.00515
G1 X152.516 Y154.857 E0.0018
G1 X152.396 Y154.715 E0.00515
G1 X152.35 Y154.669 E0.0018
G1 X152.215 Y154.542 E0.00515
G1 X152.164 Y154.502 E0.0018
G1 X152.016 Y154.389 E0.00516
G1 X151.803 Y154.261 E0.00691
G1 X151.634 Y154.183 E0.00515
G1 X151.575 Y154.156 E0.0018
G1 X151.399 Y154.097 E0.00515
G1 X151.337 Y154.078 E0.0018
G1 X151.156 Y154.038 E0.00515
G1 X151.092 Y154.026 E0.0018
G1 X150.908 Y154.006 E0.00515
G1 X150.843 Y154.002 E0.0018
G1 X150.657 Y154.002 E0.00515
G1 X150.592 Y154.006 E0.0018
G1 X150.408 Y154.026 E0.00515
G1 X150.344 Y154.038 E0.0018
G1 X150.163 Y154.078 E0.00515
G1 X150.101 Y154.097 E0.0018
G1 X149.925 Y154.156 E0.00515
G1 X149.866 Y154.183 E0.0018
G1 X149.697 Y154.261 E0.00515
G1 X149.484 Y154.389 E0.00691
G1 X149.336 Y154.502 E0.00516
G1 X149.285 Y154.542 E0.0018
G1 X149.15 Y154.669 E0.00515
G1 X149.105 Y154.715 E0.0018
G1 X148.984 Y154.857 E0.00515
G1 X148.944 Y154.908 E0.0018
G1 X148.84 Y155.061 E0.00515
G1 X148.807 Y155.117 E0.0018
G1 X148.72 Y155.281 E0.00515
G1 X148.693 Y155.34 E0.0018
G1 X148.624 Y155.512 E0.00515
G1 X148.605 Y155.574 E0.0018
G1 X148.555 Y155.753 E0.00515
G1 X148.544 Y155.817 E0.0018
G1 X148.514 Y156. E0.00515
G1 X148.51 Y156.065 E0.0018
G1 X148.5 Y156.25 E0.00513
G1 X148.51 Y156.434 E0.00513
G1 X148.514 Y156.499 E0.0018
G1 X148.544 Y156.682 E0.00515
G1 X148.555 Y156.746 E0.0018
G1 X148.605 Y156.925 E0.00515
G1 X148.624 Y156.987 E0.0018
G1 X148.693 Y157.159 E0.00515
G1 X148.72 Y157.218 E0.0018
G1 X148.807 Y157.382 E0.00515
G1 X148.84 Y157.438 E0.0018
G1 X148.944 Y157.592 E0.00515
G1 X148.984 Y157.643 E0.0018
G1 X149.105 Y157.784 E0.00515
G1 X149.15 Y157.83 E0.0018
G1 X149.285 Y157.958 E0.00515
G1 X149.336 Y157.998 E0.0018
G1 X149.484 Y158.11 E0.00516
G1 X149.697 Y158.239 E0.00691
G1 X149.866 Y158.317 E0.00515
G1 X149.925 Y158.343 E0.0018
G1 X150.101 Y158.402 E0.00515
G1 X150.163 Y158.422 E0.0018
G1 X150.344 Y158.462 E0.00515
G1 X150.408 Y158.473 E0.0018
G1 X150.597 Y158.494 E0.00529
G1 X150.747 Y158.66 F27000
G1 E-1.5 F3000
G1 Z0.4 F27000
M204 S1500
G1 X150.611 Y165.531
M204 S3000
G1 X150.625 Y172.569
G1 Z0.2
G1 E1.5 F2100
;TYPE:Internal perimeter
G1 F1200
G1 X150.875 Y172.569 E0.00695
G1 X150.998 Y172.561 E0.00341
G1 X151.247 Y172.534 E0.00695
G1 X151.368 Y172.512 E0.00341
G1 X151.612 Y172.458 E0.00695
G1 X151.73 Y172.421 E0.00341
G1 X151.967 Y172.342 E0.00695
G1 X152.079 Y172.291 E0.00341
G1 X152.305 Y172.186 E0.00692
G1 X152.618 Y171.998 E0.01014
G1 X152.818 Y171.846 E0.00698
G1 X152.915 Y171.77 E0.00341
G1 X153.097 Y171.598 E0.00695
G1 X153.184 Y171.511 E0.00341
G1 X153.346 Y171.32 E0.00695
G1 X153.422 Y171.223 E0.00341
G1 X153.562 Y171.016 E0.00695
G1 X153.626 Y170.911 E0.00341
G1 X153.743 Y170.69 E0.00695
G1 X153.794 Y170.578 E0.00341
G1 X153.886 Y170.345 E0.00695
G1 X153.923 Y170.228 E0.00341
G1 X153.99 Y169.986 E0.00695
G1 X154.012 Y169.865 E0.00341
G1 X154.052 Y169.618 E0.00695
G1 X154.06 Y169.496 E0.00341
G1 X154.073 Y169.25 E0.00684
G1 X154.06 Y169.004 E0.00684
G1 X154.052 Y168.881 E0.00341
G1 X154.012 Y168.634 E0.00695
G1 X153.99 Y168.513 E0.00341
G1 X153.923 Y168.272 E0.00695
G1 X153.886 Y168.154 E0.00341
G1 X153.794 Y167.922 E0.00695
G1 X153.743 Y167.81 E0.00341
G1 X153.626 Y167.588 E0.00695
G1 X153.562 Y167.483 E0.00341
G1 X153.422 Y167.276 E0.00695
G1 X153.346 Y167.179 E0.00341
G1 X153.184 Y166.988 E0.00695
G1 X153.097 Y166.901 E0.00341
